X:14
T:The Poet's House
R:fling
C:Jim McGraw
O:Co. Fermanagh, Ireland
S:http://www.cranfordpub.com/recordings/mcgraw.htm
D:Melodious Accord, Jim McGraw
Z:psc
H:These three flings take their titles from the townland of Drumbeggan. The mile-long concrete lane below our house leads In the Lane to Carran passing a large circle of trees known locally as The Fairy Fort and ending at The Poet's House (Peadar Burns) overlooking the lakes of Carran and Ross and the surrounding Boho countryside. A truly inspirational part of Fermanagh.
L:1/8
Q:333
M:C|
K:D
FE|D2 DE DEFA|B2 BA BcdB|A3 B AFDF|E4 E2 FE|
D2 DE DEFA|B2 BA BcdB|AF ~F2 GECE|D4 D2 (3(GFE)|
D2 DE DEFA|B2 BA BcdB|Ad ~d2 defd|(3efd  cB (3(ABA) (3(GFE)|
D2 DE DEFA|B2 BA BcdB|AF ~F2 GECE|D2 d2 c2 =c2||
||B3 A BcdB|A3 B AFDF|GB ~B2 AFDF|E4 E3 d|
f3 g fedc|B2 BA BcdB|AF ~F2 GECE|D2 d2 c2 =c2|
B3 A BcdB|A3 B AFDF|GB ~B2 Adfd|edcB AF (3(GFE)|
D2 DE DEFA|B2 BA BcdB|AF ~F2 GECE|D4 D2|]
